sourses/img/Vector3.svg

<svg width="80" height="95" viewBox="0 0 80 95" fill="none" xmlns="http://www.w3.org/2000/svg">
<path d="M74.6227 59.387L71.613 53.3684C72.2514 52.073 72.7983 50.7642 73.2477 49.4614L79.6189 47.3372V29.9012L73.2477 27.7769C72.7998 26.4741 72.2514 25.1653 71.613 23.8699L74.6256 17.8454L62.2975 5.51723L56.273 8.52988C54.9776 7.89148 53.6688 7.34312 52.366 6.8952L50.2417 0.523926H32.8057L30.6814 6.8952C29.3786 7.34312 28.0698 7.89148 26.7745 8.52988L20.7499 5.51723L8.42178 17.8454L11.4344 23.8699C10.796 25.1653 10.2477 26.4741 9.79976 27.7769L3.42848 29.9012V47.3357L9.79976 49.4592C10.2447 50.7531 10.7856 52.05 11.4181 53.3349L9.45824 56.9049H0.380859V87.3811H11.0475V82.8096H22.607L27.1785 87.3811H35.4285V88.9049C35.4285 92.2665 38.1621 95.0001 41.5237 95.0001C44.8853 95.0001 47.6189 92.2665 47.6189 88.9049V87.3811H58.2871C60.8072 87.3811 62.8585 85.3297 62.8585 82.8096C62.8585 81.6348 62.4002 80.573 61.6703 79.762C62.4017 78.951 62.8585 77.8892 62.8585 76.7144C62.8585 75.5395 62.4002 74.4778 61.6703 73.6668C62.2521 73.0209 62.6495 72.2144 62.7886 71.3156L74.6227 59.387ZM14.4932 52.6593C13.6547 51.0492 12.9709 49.4123 12.4597 47.797L12.2254 47.0567L6.4761 45.1392V32.0976L12.2254 30.1817L12.4582 29.4398C12.9672 27.826 13.6517 26.1891 14.491 24.579L14.8496 23.8885L12.1294 18.4473L21.3504 9.22631L26.7916 11.9465L27.482 11.5887C29.0937 10.7486 30.7291 10.0648 32.3429 9.55517L33.0847 9.32229L35.0036 3.57154H48.0453L49.9612 9.3208L50.703 9.55369C52.3169 10.0626 53.9538 10.7471 55.5639 11.5864L56.2544 11.9451L61.6956 9.22482L70.9166 18.4458L68.1963 23.887L68.5542 24.5775C69.3942 26.1891 70.078 27.8245 70.5877 29.4384L70.8206 30.1802L76.5713 32.0991V45.1407L70.8221 47.0567L70.5877 47.797C70.0765 49.4123 69.3928 51.0492 68.5542 52.6593L68.1963 53.3498L70.9195 58.7947L61.9151 67.8684C61.8377 67.7665 61.7551 67.666 61.6703 67.5715C62.4017 66.7605 62.8585 65.6988 62.8585 64.5239C62.8585 62.1467 61.0282 60.2114 58.7075 59.9949C65.1718 54.8141 68.9523 47.0395 68.9523 38.6192C68.9523 23.4956 56.6472 11.1906 41.5237 11.1906C26.4002 11.1906 14.0951 23.4956 14.0951 38.6192C14.0951 46.9376 17.8771 54.7628 24.2968 59.9525H11.2626L14.869 53.3818L14.4932 52.6593ZM59.8109 76.7144C59.8109 77.5552 59.1264 78.2382 58.2871 78.2382H46.0951C45.2559 78.2382 44.5713 77.5552 44.5713 76.7144C44.5713 75.8736 45.2559 75.1906 46.0951 75.1906H58.2871C59.1264 75.1906 59.8109 75.8736 59.8109 76.7144ZM37.8451 38.6192H45.2023L47.6189 36.2025V29.4763C49.2998 29.4763 50.6666 30.8431 50.6666 32.5239V39.512L45.4642 44.7144H37.5832L32.3809 39.512V32.5239C32.3809 30.8431 33.7477 29.4763 35.4285 29.4763V36.2025L37.8451 38.6192ZM38.4761 47.762H44.5713V53.8572H38.4761V47.762ZM47.6189 46.8692L53.7142 40.7739V32.5239C53.7142 29.1623 50.9806 26.4287 47.6189 26.4287H44.5713V34.9406L43.9404 35.5715H39.107L38.4761 34.9406V26.4287H35.4285C32.0669 26.4287 29.3332 29.1623 29.3332 32.5239V40.7739L35.4285 46.8692V53.8572H31.7499L31.6539 53.9532C26.4515 50.5961 23.238 44.8409 23.238 38.6192C23.238 28.5358 31.4404 20.3334 41.5237 20.3334C51.607 20.3334 59.8094 28.5358 59.8094 38.6192C59.8094 44.7955 56.7239 50.4517 51.5594 53.8572H47.6189V46.8692ZM62.857 38.6192C62.857 26.855 53.2878 17.2858 41.5237 17.2858C29.7596 17.2858 20.1904 26.855 20.1904 38.6192C20.1904 45.6578 23.6919 52.2114 29.4352 56.172L27.241 58.3662C20.9129 53.7828 17.1428 46.4473 17.1428 38.6192C17.1428 25.1765 28.081 14.2382 41.5237 14.2382C54.9664 14.2382 65.9047 25.1765 65.9047 38.6192C65.9047 46.1497 62.5006 53.0983 56.6889 57.7047C56.5148 56.6244 55.9634 55.6794 55.171 54.9927C60.0274 50.9607 62.857 45.0239 62.857 38.6192ZM58.2871 63.0001C59.1264 63.0001 59.8109 63.6831 59.8109 64.5239C59.8109 65.3647 59.1264 66.0477 58.2871 66.0477H46.0951C45.2559 66.0477 44.5713 65.3647 44.5713 64.5239C44.5713 63.6831 45.2559 63.0001 46.0951 63.0001H58.2871ZM46.0951 72.143C45.2559 72.143 44.5713 71.4599 44.5713 70.6191C44.5713 69.7784 45.2559 69.0953 46.0951 69.0953H58.2871C59.1264 69.0953 59.8109 69.7784 59.8109 70.6191C59.8109 71.4599 59.1264 72.143 58.2871 72.143H46.0951ZM7.99991 84.3334H3.42848V59.9525H7.99991V84.3334ZM28.4404 84.3334L23.869 79.762H11.0475V63.0001H26.9166L33.0118 56.9049H52.1904C53.0297 56.9049 53.7142 57.5879 53.7142 58.4287C53.7142 59.2694 53.0297 59.9525 52.1904 59.9525H36.3213L29.7797 66.4941L31.9344 68.6489L35.4285 65.1549V84.3334H28.4404ZM41.5237 91.9525C39.8429 91.9525 38.4761 90.5857 38.4761 88.9049V63.0001H41.8042C41.6331 63.4785 41.5237 63.9875 41.5237 64.5239C41.5237 65.6988 41.982 66.7605 42.712 67.5715C41.9806 68.3825 41.5237 69.4443 41.5237 70.6191C41.5237 71.794 41.982 72.8558 42.712 73.6668C41.9806 74.4778 41.5237 75.5395 41.5237 76.7144C41.5237 77.8892 41.982 78.951 42.712 79.762C41.9806 80.573 41.5237 81.6348 41.5237 82.8096C41.5237 84.7933 42.802 86.4696 44.5713 87.1005V88.9049C44.5713 90.5857 43.2045 91.9525 41.5237 91.9525ZM58.2871 84.3334H46.0951C45.2559 84.3334 44.5713 83.6504 44.5713 82.8096C44.5713 81.9688 45.2559 81.2858 46.0951 81.2858H58.2871C59.1264 81.2858 59.8109 81.9688 59.8109 82.8096C59.8109 83.6504 59.1264 84.3334 58.2871 84.3334Z" fill="#D7A950"/>
</svg>

<svg width="80" height="95" fill="none" xmlns="http://www.w3.org/2000/svg"><path d="M74.623 59.387l-3.01-6.019a33.768 33.768 0 001.635-3.907l6.37-2.124V29.901l-6.37-2.124a33.507 33.507 0 00-1.635-3.907l3.013-6.025L62.297 5.517 56.273 8.53a33.51 33.51 0 00-3.907-1.635L50.242.524H32.806L30.68 6.895a33.502 33.502 0 00-3.907 1.635L20.75 5.517 8.422 17.845l3.012 6.025A33.513 33.513 0 009.8 27.777L3.428 29.9v17.435L9.8 49.459a33.434 33.434 0 001.618 3.876l-1.96 3.57H.381V87.38h10.666v-4.57h11.56l4.572 4.571h8.25v1.524A6.101 6.101 0 0041.523 95a6.101 6.101 0 006.095-6.095V87.38h10.668a4.577 4.577 0 004.572-4.571 4.542 4.542 0 00-1.189-3.048 4.535 4.535 0 001.188-3.048 4.542 4.542 0 00-1.188-3.047 4.54 4.54 0 001.119-2.351l11.834-11.929zm-60.13-6.728a30.509 30.509 0 01-2.033-4.862l-.235-.74-5.749-1.918V32.098l5.75-1.916.232-.742a30.272 30.272 0 012.033-4.861l.359-.69-2.72-5.442 9.22-9.22 5.442 2.72.69-.358a30.323 30.323 0 014.86-2.034l.743-.233 1.919-5.75h13.041l1.916 5.749.742.233a30.26 30.26 0 014.86 2.032l.691.36 5.442-2.721 9.22 9.22-2.72 5.442.358.69a30.33 30.33 0 012.034 4.861l.233.742 5.75 1.92v13.04l-5.749 1.917-.234.74a30.5 30.5 0 01-2.034 4.862l-.358.69 2.724 5.446-9.005 9.073a4.74 4.74 0 00-.245-.296 4.535 4.535 0 001.188-3.048c0-2.377-1.83-4.313-4.15-4.53 6.464-5.18 10.244-12.955 10.244-21.375 0-15.123-12.305-27.428-27.428-27.428-15.124 0-27.429 12.305-27.429 27.428a27.44 27.44 0 0010.202 21.334H11.263l3.606-6.571-.376-.723zm45.318 24.055c0 .841-.685 1.524-1.524 1.524H46.095c-.84 0-1.524-.683-1.524-1.524 0-.84.685-1.523 1.524-1.523h12.192c.84 0 1.524.683 1.524 1.523zM37.845 38.62h7.357l2.417-2.416v-6.727a3.05 3.05 0 013.048 3.048v6.988l-5.203 5.202h-7.88l-5.203-5.202v-6.988a3.05 3.05 0 013.047-3.048v6.727l2.417 2.416zm.631 9.143h6.095v6.095h-6.095v-6.095zm9.143-.893l6.095-6.095v-8.25a6.101 6.101 0 00-6.095-6.095H44.57v8.512l-.63.63h-4.834l-.63-.63V26.43h-3.048a6.101 6.101 0 00-6.096 6.095v8.25l6.096 6.095v6.988h-3.68l-.095.096c-5.203-3.357-8.416-9.112-8.416-15.334 0-10.083 8.202-18.286 18.286-18.286 10.083 0 18.285 8.203 18.285 18.286 0 6.176-3.085 11.833-8.25 15.238h-3.94V46.87zm15.238-8.25c0-11.764-9.57-21.333-21.333-21.333-11.764 0-21.334 9.569-21.334 21.333 0 7.039 3.502 13.592 9.245 17.553l-2.194 2.194A24.39 24.39 0 0117.143 38.62c0-13.442 10.938-24.38 24.38-24.38 13.443 0 24.382 10.938 24.382 24.38 0 7.53-3.404 14.48-9.216 19.086a4.537 4.537 0 00-1.518-2.712 21.192 21.192 0 007.686-16.374zM58.287 63c.84 0 1.524.683 1.524 1.524 0 .84-.685 1.524-1.524 1.524H46.095c-.84 0-1.524-.683-1.524-1.524 0-.84.685-1.524 1.524-1.524h12.192zm-12.192 9.143c-.84 0-1.524-.683-1.524-1.524 0-.84.685-1.524 1.524-1.524h12.192c.84 0 1.524.683 1.524 1.524 0 .84-.685 1.524-1.524 1.524H46.095zM8 84.333H3.428v-24.38H8v24.38zm20.44 0l-4.571-4.571H11.047V63h15.87l6.095-6.095H52.19c.84 0 1.524.683 1.524 1.524 0 .84-.684 1.523-1.524 1.523H36.321l-6.541 6.542 2.154 2.155 3.494-3.494v19.178H28.44zm13.084 7.62a3.05 3.05 0 01-3.048-3.048V63h3.328c-.17.478-.28.987-.28 1.524a4.54 4.54 0 001.188 3.047 4.535 4.535 0 00-1.188 3.048c0 1.175.458 2.237 1.188 3.048a4.535 4.535 0 00-1.188 3.047c0 1.175.458 2.237 1.188 3.048a4.535 4.535 0 00-1.188 3.048c0 1.983 1.278 3.66 3.047 4.29v1.805a3.05 3.05 0 01-3.047 3.047zm16.763-7.62H46.095c-.84 0-1.524-.683-1.524-1.523 0-.841.685-1.524 1.524-1.524h12.192c.84 0 1.524.683 1.524 1.524 0 .84-.685 1.523-1.524 1.523z" fill="#D7A950"/></svg>
